X:1
%
T:Humors of Dingle [3], The
M:6/8
L:1/8
R:Jig
S:James Goodman (1828?1896) music manuscript collection,
S:vol. 2, p. 131. Mid-19th century, County Cork
N:Goodman had it from the music manuscripts of
N:John Edward Pigot (1822–1871), whose source was "Miss
N:O'Connel" who was his informant for a half-dozen tunes or more
Z:AK/Fiddler’s Companion
K:A
d2|agf ecA|efe ecA|Acc c2A|ecc c2B|
agf ecA|efe ecA|GBB B2A|GBB B2||
c|AcA ece|faf ecA|ecc c2B|ecc c2B|
ABA ece|faf ecA|GBB B2A|GBB B2||

